static/lexicon/images/clay_logo.svg

<svg width="232px" height="304px" viewBox="0 0 232 304" version="1.1" xmlns="http://www.w3.org/2000/svg" xmlns:xlink="http://www.w3.org/1999/xlink">
    <g stroke="none" stroke-width="1" fill="none" fill-rule="evenodd">
        <path d="M231.986295,90.3982608 C231.986295,72.1712295 219.069234,49.7901624 203.287807,40.6732194 L144.698488,6.83770731 C128.910208,-2.27923577 103.08294,-2.27923577 87.2946597,6.83770731 L28.7053403,40.6732194 C12.9170605,49.7901624 0,72.1712295 0,90.3982608 L0,225.424986 C0,234.576203 7.4213138,242 16.5694707,242 C25.7244802,241.993145 33.1389414,234.576203 33.145794,225.424986 L33.145794,92.9688275 C33.145794,83.8518844 39.6008979,72.6579234 47.4950378,68.0994519 L101.643904,36.8345065 C109.544896,32.276035 122.455104,32.276035 130.349244,36.8345065 L184.49811,68.1063067 C192.39225,72.6579234 198.847353,83.8518844 198.847353,92.9688275 L198.854206,169.818488 C198.854206,178.97656 206.268667,186.400357 215.416824,186.407212 C221.858223,186.400357 227.429348,182.72616 230.170369,177.358817 C231.32845,175.096718 232,172.533007 232,169.825343 L231.986295,90.3982608 Z" fill="#FFFFFF"></path>
        <path d="M232,228.526117 C232,237.621499 224.609801,244.993187 215.493176,245 C206.383375,245 199,237.621499 199,228.526117 L199,216.480696 C199,207.378501 206.383375,200 215.493176,200 C224.609801,200 232,207.378501 232,216.473883 L232,228.526117 Z" fill="#FFFFFF"></path>
        <path d="M115.5,108 C106.390199,108.006831 99,115.397467 99,124.523059 L99.0068238,228.483771 C99.0068238,237.602533 106.390199,245 115.5,245 C124.616625,245 132,237.602533 132,228.483771 L132,124.523059 C132,115.397467 124.609801,108.006831 115.5,108" fill="#FFFFFF"></path>
        <path d="M165.375,152.285946 C174.54694,152.285946 181.986249,144.872632 182,135.724287 L182,103.005581 C182,93.8846669 175.523263,82.6926886 167.602667,78.1322318 L129.904208,56.4203426 C121.983612,51.8598858 109.023263,51.8598858 101.102667,56.4203426 L63.3973325,78.1322318 C55.4836125,82.6926886 49,93.8846669 49,103.005581 L49,253.994419 C49,263.115333 55.4836125,274.300454 63.3973325,278.86091 L101.102667,300.579657 C109.023263,305.140114 121.983612,305.140114 129.904208,300.579657 L167.602667,278.86091 C175.523263,274.300454 182,263.115333 182,253.994419 L182,182.330098 C181.986249,173.181753 174.54694,165.768439 165.375,165.768439 C156.196185,165.768439 148.75,173.195469 148.75,182.350671 L148.75,243.138475 C148.75,247.692074 145.511632,253.288063 141.551334,255.57172 L122.698666,266.427665 C118.738368,268.711322 112.261632,268.711322 108.301334,266.427665 L89.4555418,255.57172 C85.495244,253.288063 82.2568755,247.692074 82.2568755,243.138475 L82.2568755,113.861525 C82.2568755,109.301068 85.495244,103.711937 89.4555418,101.421422 L108.301334,90.5654772 C112.261632,88.2818199 118.738368,88.2818199 122.698666,90.5654772 L141.551334,101.421422 C145.511632,103.711937 148.75,109.301068 148.75,113.861525 L148.75,135.703713 C148.75,144.858916 156.196185,152.285946 165.375,152.285946" fill="#FFFFFF"></path>
    </g>
</svg>

<svg width="232" height="304" xmlns="http://www.w3.org/2000/svg"><g fill="#FFF" fill-rule="evenodd"><path d="M231.986 90.398c0-18.227-12.917-40.608-28.698-49.725l-58.59-33.835c-15.788-9.117-41.615-9.117-57.403 0l-58.59 33.835C12.917 49.79 0 72.171 0 90.398v135.027C0 234.576 7.421 242 16.57 242c9.154-.007 16.569-7.424 16.576-16.575V92.969c0-9.117 6.455-20.311 14.349-24.87l54.149-31.264c7.9-4.559 20.811-4.559 28.705 0l54.15 31.271c7.893 4.552 14.348 15.746 14.348 24.863l.007 76.85c0 9.158 7.415 16.581 16.563 16.588 6.441-.007 12.012-3.68 14.753-9.048a16.507 16.507 0 0 0 1.83-7.534l-.014-79.427zM232 228.526c0 9.095-7.39 16.467-16.507 16.474-9.11 0-16.493-7.379-16.493-16.474v-12.045c0-9.102 7.383-16.481 16.493-16.481 9.117 0 16.507 7.379 16.507 16.474v12.052z"/><path d="M115.5 108c-9.11.007-16.5 7.397-16.5 16.523l.007 103.96c0 9.12 7.383 16.517 16.493 16.517 9.117 0 16.5-7.397 16.5-16.516v-103.96c0-9.127-7.39-16.517-16.5-16.524"/><path d="M165.375 152.286c9.172 0 16.611-7.413 16.625-16.562v-32.718c0-9.121-6.477-20.313-14.397-24.874L129.904 56.42c-7.92-4.56-20.88-4.56-28.801 0L63.397 78.132C55.484 82.692 49 93.885 49 103.006v150.988c0 9.121 6.484 20.306 14.397 24.867l37.706 21.719c7.92 4.56 20.88 4.56 28.801 0l37.699-21.72c7.92-4.56 14.397-15.745 14.397-24.866V182.33c-.014-9.148-7.453-16.562-16.625-16.562-9.179 0-16.625 7.427-16.625 16.583v60.787c0 4.554-3.238 10.15-7.199 12.434L122.7 266.428c-3.96 2.283-10.437 2.283-14.398 0l-18.845-10.856c-3.96-2.284-7.2-7.88-7.2-12.434V113.862c0-4.56 3.24-10.15 7.2-12.44L108.3 90.564c3.96-2.283 10.437-2.283 14.398 0l18.852 10.856c3.96 2.29 7.199 7.88 7.199 12.44v21.843c0 9.155 7.446 16.582 16.625 16.582"/></g></svg>
